X: 32126
T: Peter Byrne's
R: jig
M: 6/8
K: Dmixolydian
|:"D"AFD c2A|"Am"BAG ~A3|"D"AFD c2A|"Am"BGE "D"EGD|
AFD c2A|"Am"BAG .A.A.A|"D"cde dcA|"Am"AGE "D"EGD:|
|:"D"cde dcA|"Am"AGE c2A|"D"cde dcA|"Am"AGE "D"EGD|
"D"cde dcA|"Am"AGE c2d|"D"fed "Am"c2A|BGE "D"EGD:|

